X:2842
T:Chark's Hornpipe
B:Walsh
M:3/2
L:1/8
N:
K:D
d2 A2 F2 D2 A2 d2| cde2 Bcd2 c2 A2| d2 f2 ef g2 fg a2| A2 d2 cdec d4::\
fefg fedc B2 d2| c2 e2 d2 B2 ^A2 F2| BcdB cdec de f2| F2 B2 ^ABc^A B2 AG|\
FEFD GFGE AGAF| BABG cBcA dcdB| efed c2 A2 dcde| fg a2 A2 c2 d4:|


